X:1
T:Title
%%score { ( 1 3 ) | ( 2 4 ) }
L:1/8
M:4/4
K:Bb
V:1 treble nm="Grand Piano"
V:3 treble 
V:2 bass 
V:4 bass 
V:1
 z4 z2[Q:1/4=90] [DF][_D=E] | [EG][DF][DB][CA] [Ec][DB][B,D][DF] | [FA]2 G4 EC | F6 z2 | F4 z4 | %5
 [EG][DF][DB][CA] [Ec][DB][B,D][DF] | [FA]2 G4 GG | c6 z2 | f6 z2 | c3 =B dcAG | [DF]2 [DB]4 F2 | %11
 c3 =B dcAF |[M:7/8] [^Fd]- [Fd]3 [=Fe]3 |[M:1/4] [DF][_D=E] | %14
[M:4/4] [EG][DF][DB][CA] [Ec][DB][F,B,D][B,DF] | [B,FA]2 [B,EG]4 z2 | %16
[M:9/8] z2 [A,C] [B,D] [CE]2 [B,=EG]3/2[_EA]3/2 |[M:3/4] [DB]6 |] %18
V:2
 z4 z2 [B,,B,][B,,B,] | [B,,B,][B,,B,][B,,F,][B,,F,] [B,,F,][B,,F,][B,,F,][B,,B,] | %2
 [E,B,]2 [E,B,E]4 z2 | z2 [F,A,][F,B,] [F,C]2 z2 | z2 B,,B,, B,,2 [B,,B,][B,,B,] | %5
 [B,,B,][B,,B,][B,,F,][B,,F,] [B,,F,][B,,F,][B,,F,][B,,B,] | [E,B,]2 [E,B,E]4 z2 | %7
 z2 [C,G,][C,A,] [C,B,]2 z2 | z2 [F,C][F,D] [F,E]2 [F,A,E]2 | %9
 [F,A,E]3 [F,A,E] [F,A,E][F,A,E][F,CE][F,A,E] | [B,,B,]2 [B,,F,]4 [F,A,E]2 | %11
 [F,A,E]3 [F,A,E] [F,A,E][F,A,E][F,CE][F,A,E] |[M:7/8] A,- A,3- [C,A,]2- [C,-A,]/C,/ | %13
[M:1/4] [B,,B,][B,,B,] |[M:4/4] [B,,B,][B,,B,][B,,F,][B,,F,] [B,,F,][B,,F,]B,,B,, | %15
 E,2 E,4[K:treble] EC |[M:9/8] F6[K:bass] z3 |[M:3/4] [B,,F,]6 |] %18
V:3
 x8 | x8 | x8 | z2 CD E2 EC | z2 [B,D][CE] [DF]2 [DF][_D=E] | x8 | x8 | z2 =EF G2 dc | %8
 z2 AB c2 F2 | x8 | x8 | x8 |[M:7/8] x7 |[M:1/4] x2 |[M:4/4] x8 | x8 |[M:9/8] x9 |[M:3/4] x6 |] %18
V:4
 x8 | x8 | x8 | x8 | x8 | x8 | x8 | x8 | x8 | x8 | x8 | x8 |[M:7/8] D,- D,3 z z2 |[M:1/4] x2 | %14
[M:4/4] x8 | x6[K:treble] x2 |[M:9/8] z2[K:bass] F, F, F,2 C,3/2F,3/2 |[M:3/4] x6 |] %18

